X: 7084
T: Christie's Quickstep
R: jig
M: 6/8
K: Dmajor
B|AFD DED|AFA d2A|Bcd AFD|Egf edc|
dAF DFA|BABd2B|AFD EDB,|A,DDD2:|
f|:afd dfa|afb afd|gbg faf|geee2f|
[1 afd dfa|afb afd|gfe fdB|Addd2f:|
[2 fed cBA|BdB AFD|GFE FDB,|A,DDD2||

